X: 2
M: 3/4
L: 1/8
K: F
V: 1
|:\
|: c2 fcac | B2 dBgB | A>BcAGF | E>FGE C2 |\
V: 2 clef=bass middle=d
|:\
"F"f4 "Bb"b2 | "F"a2 "C7"g2 "F"f2 | "Gm"B2 "F"c2 "C"c2 | "F"FAcA F2 |\
z2 z2 "F"f2 | "Gm"g>a b2 "C"g2 | "F"a2 "C7"g2 "F"f2 | "C"c6 :|\
|: "F"f4 f2 |
"Gm"g2 "C7"e2 c2 | "F"f2 A2 "G7"=B2 | "C"c4 C2 |\
z2 "F"f2 "Bb"b2 | "F"a2 f2 "Dm"d2 | "Gm"B2 "F"c2 "C"C2 | "F"F6 :|

